X:1
T:I Love the Church of God
T:I Love the Church of God
T:Andrew L. Byers, pub.1907
T:Jennie Mast
T:PUBLIC DOMAIN
C:Andrew L. Byers, pub.1907
Z:Jennie Mast
Z:PUBLIC DOMAIN
%%score ( 1 2 ) ( 3 4 )
L:1/8
Q:1/4=100
M:4/4
K:A
V:1 treble nm="Treble"
V:2 treble 
V:3 bass nm="Bass"
V:4 bass 
V:1
 [CE]4 [CE]2 E2 | [DF]2 [DA]2 [CA]4 | (B2 A2) [Ec]2 [EB]2 | [EA]6 z2 | [EG]4 [^DA]2 [DF]2 | E6 z2 | %6
w: 6.~I love the|church of God;|Her * courts of|love,|Her courts of|love|
w: 2.~I love the|church of God;|Her * clos- ed|door,|Her clos- ed|door,|
w: 3.~I love the|church of God;|Her * gates of|praise,|Her gates of|praise|
w: 4.~I love the|church of God,|Beau- _ ti- ful|bride,|Beau- ti- ful|bride:|
w: 5.~I love the|church of God,|Ref- _ uge se-|cure,|Ref- uge se-|cure:|
 [EB]4 [EB]2 [Ec]2 | [EB]2 [EA]2 (G2 A2) | [EB]4 [EB]2 [Ec]2 | [Gd]2 [Gd]2 [Gd]4 | %10
w: Suc- cor the|faint- ing heart, *|Through to the|weak im- part;|
w: Held by that|pierc- ed hand, *|O- pens at|His com- mand,|
w: Re- ech- o|far and near *|Strains of an-|gel- ic cheer,|
w: Fine lin- en,|pure and clean, *|No spot on|her is seen;|
w: When storms and|thun- ders loud *|Break from the|threat- ’ning cloud,|
 [Ac]4 [Ec]2 [EB]2 | [GB]2 [FA]2 (([EG]2 [DF]2)) | [CE]4 [EA]2 [EG]2 | [EA]6 z2 |] %14
w: Per- fect in|eve- ry part, *|Here and a-|bove.|
w: Wel- comes the|con- trite friend, *|Wealth- y or|poor.|
w: Mark each pro-|phet- ic year, *|Num- ber the|days.|
w: Low by her|pas- tures green *|Still wa- ters|glide.|
w: An- guish the|world en- shroud, *|She will en-|dure.|
V:2
 z4 z2 E2 | x8 | E4 z4 | x8 | x8 | E6 z2 | x8 | z4 E4 | x8 | x8 | x8 | x8 | x8 | x8 |] %14
V:3
 [A,,A,]4 [A,,A,]2 [C,A,]2 | [D,A,]2 [D,F,]2 [A,,E,]4 | (G,2 C2) [E,A,]2 [E,D]2 | [A,,C]6 z2 | %4
 [B,,B,]4 [B,,F,]2 [B,,A,]2 | [E,G,]6 z2 | [E,G,]4 [E,G,]2 [E,A,]2 | [E,G,]2 [E,C]2 (B,2 A,2) | %8
 [E,G,]4 [E,G,]2 [E,A,]2 | [E,B,]2 [E,E]2 [E,E]4 | [A,E]4 [A,E]2 [E,D]2 | %11
 [E,D]2 [F,C]2 (([C,C]2 [D,A,]2)) | [E,A,]4 [E,C]2 [E,D]2 | [A,,C]6 z2 |] %14
V:4
 x8 | x8 | E,4 z4 | x8 | x8 | x8 | x8 | z4 E,4 | x8 | x8 | x8 | x8 | x8 | x8 |] %14

